img/header/header-favorites.svg

<svg width="21" height="19" viewBox="0 0 21 19" fill="none" xmlns="http://www.w3.org/2000/svg">
<path d="M9.61786 3.81011L10.5 5.46229L11.3821 3.81013C11.6921 3.22965 12.2015 2.46728 12.9379 1.88367C13.688 1.28913 14.5153 1 15.4219 1C17.9527 1 20 3.11588 20 6.20081C20 7.81044 19.3827 9.2031 18.1604 10.7146C16.9128 12.2575 15.1087 13.8375 12.8217 15.8349L12.8217 15.8349L12.8208 15.8357C12.1184 16.4492 11.3265 17.1408 10.5 17.8785C9.67416 17.1414 8.88282 16.4502 8.18115 15.8374L8.17882 15.8353L8.1788 15.8353C5.89158 13.8377 4.08729 12.2576 2.83963 10.7147C1.61732 9.20309 1 7.81044 1 6.20081C1 3.11588 3.0473 1 5.57812 1C6.48467 1 7.31204 1.28913 8.06214 1.88367C8.79847 2.46729 9.30793 3.22963 9.61786 3.81011Z" stroke="#313131" stroke-width="2"/>
</svg>

<svg width="21" height="19" fill="none" xmlns="http://www.w3.org/2000/svg"><path d="M9.618 3.81l.882 1.652.882-1.652c.31-.58.82-1.343 1.556-1.926.75-.595 1.577-.884 2.484-.884C17.952 1 20 3.116 20 6.2c0 1.61-.617 3.003-1.84 4.515-1.247 1.543-3.051 3.123-5.338 5.12h0-.001c-.703.614-1.495 1.306-2.321 2.043a281.956 281.956 0 00-2.319-2.04l-.002-.003h0c-2.287-1.997-4.092-3.577-5.34-5.12C1.618 9.203 1 7.81 1 6.2 1 3.116 3.047 1 5.578 1c.907 0 1.734.29 2.484.884.736.583 1.246 1.346 1.556 1.926z" stroke="#313131" stroke-width="2"/></svg>
